X:777
T:Xiraldilla (CT 110)
R:Xiraldilla
C:Tradicional
S:Msica Tradicional Asturiana, (C) Tello & Tito. Asturies, 2001.
S:http://pagina.de/MusTradAst <telloytito@asturies.org>
N:Xiraldilla, variante de la sealada con el nmero CT 059, dictqada por Mara Fernndez Argelles, de diez y nueve aos, de Cabaaquinta, ayuntamiento de Ayer.
A:Asturies
O:Cabaaquinta (Ayer)
Z:Cancioneru de Torner 110
M:2/4
L:1/8
Q:1/4=130
K:G
|GA Bc|d3 c|e2 d2|dfed|c3 A|B2 G2|
GA Bc|d3 c|e2 d2|df ed|c3 A|B2 GG|
c2 A2-|A4|d3 c|B2 A2|G2-GG|
c2 A2-|A4|d3 c|B2 A2|G4-|G2 z2||
W:Cmo dormirs, Manuela,
W:cmo dormirs, querida,
W:entre grillos y cadenas
W:toda la noche metida.
W:Manuela, cmo dormirs.
W:Querida, prisionera ests.
W:
